public/menu-items/mi-praktijkinfo.svg

<?xml version="1.0" encoding="UTF-8"?>
<svg width="299px" height="224px" viewBox="0 0 299 224" version="1.1" xmlns="http://www.w3.org/2000/svg" xmlns:xlink="http://www.w3.org/1999/xlink">
    <!-- Generator: Sketch 61.1 (89650) - https://sketch.com -->
    <title>mi-praktijkinfo</title>
    <desc>Created with Sketch.</desc>
    <defs>
        <linearGradient x1="23.9173266%" y1="68.6503384%" x2="83.9996625%" y2="28.9398055%" id="linearGradient-1">
            <stop stop-color="#EEEEEE" offset="0%"></stop>
            <stop stop-color="#D8D8D8" offset="100%"></stop>
        </linearGradient>
        <rect id="path-2" x="0" y="0" width="299" height="224"></rect>
        <polygon id="path-4" points="0.153644068 0.431490763 49.7621186 0.431490763 49.7621186 211 0.153644068 211"></polygon>
        <polygon id="path-6" points="0 397 336 397 336 0 0 0"></polygon>
    </defs>
    <g id="Symbols" stroke="none" stroke-width="1" fill="none" fill-rule="evenodd">
        <g id="Practijkinfo">
            <g id="Menu-Section-2-Copy-9">
                <g id="mi-praktijkinfo">
                    <mask id="mask-3" fill="white">
                        <use xlink:href="#path-2"></use>
                    </mask>
                    <use id="Mask" fill="url(#linearGradient-1)" xlink:href="#path-2"></use>
                    <g id="Group-22" mask="url(#mask-3)">
                        <g transform="translate(-50.000000, 6.000000)">
                            <path d="M220.151431,395 L218,389.466424 C272.998883,376.949398 294.910474,319.384629 304.183151,276.099263 C314.755704,226.751861 312.196785,179.725784 312.167861,179.255761 L319.701699,179 C319.731473,179.475105 322.326972,227.018632 311.643827,276.946999 C301.79012,323.008469 278.572698,381.703836 220.151431,395" id="Fill-1" stroke="none" fill="#2B374D" fill-rule="evenodd"></path>
                            <g id="Group-5" stroke="none" stroke-width="1" fill="none" fill-rule="evenodd" transform="translate(253.000000, 186.000000)">
                                <mask id="mask-5" fill="white">
                                    <use xlink:href="#path-4"></use>
                                </mask>
                                <g id="Clip-4"></g>
                                <path d="M5.46805085,211.000169 L0.153644068,206.916599 C29.9765254,183.987933 40.6909322,32.7390651 42.255339,0.431490763 L49.7621186,0.645880321 C48.0875424,35.2786916 37.6434746,186.259784 5.46805085,211.000169" id="Fill-3" fill="#2B374D" mask="url(#mask-5)"></path>
                            </g>
                            <mask id="mask-7" fill="white">
                                <use xlink:href="#path-6"></use>
                            </mask>
                            <g id="Clip-7" stroke="none" fill="none"></g>
                            <polygon id="Fill-6" stroke="none" fill="#2B374D" fill-rule="evenodd" mask="url(#mask-7)" points="180 373 219 373 219 154 180 154"></polygon>
                            <polygon id="Fill-10" stroke="none" fill="#8493AE" fill-rule="evenodd" mask="url(#mask-7)" points="241.457526 228 0 228 127.156588 149 336 149"></polygon>
                            <polygon id="Fill-11" stroke="none" fill="#65789A" fill-rule="evenodd" mask="url(#mask-7)" points="336 194.652349 336 148 242 227.401612 242 249"></polygon>
                            <path d="M132.154681,158 L54,209 L113.348308,206.166951 C113.348308,206.166951 134.976104,183.5 156.602203,188.340219 C172.664371,191.935225 168.276529,209 168.276529,209 L230.414863,209 L296,158 L132.154681,158 Z" id="Fill-12" stroke="none" fill="#4C5A73" fill-rule="evenodd" mask="url(#mask-7)"></path>
                            <polygon id="Fill-13" stroke="none" fill="#20293A" fill-rule="evenodd" mask="url(#mask-7)" points="224 106.325046 211.641573 182 207 181.498424 211.738815 105"></polygon>
                            <path d="M224,201 L196,201 L196,178.352283 C196,172.635213 200.676538,168 206.444579,168 L213.555421,168 C219.325154,168 224,172.635213 224,178.352283 L224,201 Z" id="Fill-14" stroke="none" fill="#2B374D" fill-rule="evenodd" mask="url(#mask-7)"></path>
                            <polygon id="Fill-15" stroke="none" fill="#20293A" fill-rule="evenodd" mask="url(#mask-7)" points="139 113 271 113 271 0 139 0"></polygon>
                            <polygon id="Fill-16" stroke="none" fill="#4C5A73" fill-rule="evenodd" mask="url(#mask-7)" points="143 109 266 109 266 5 143 5"></polygon>
                            <polygon id="Fill-17" stroke="none" fill="#65789A" fill-rule="evenodd" mask="url(#mask-7)" points="276 1.47837346 271 0 271 113 273.499591 111.060692"></polygon>
                            <polygon id="Fill-18" stroke="none" fill="#191E27" fill-rule="evenodd" mask="url(#mask-7)" points="152 99 234 99 234 9 152 9"></polygon>
                            <polygon id="Fill-19" stroke="none" fill="#AEC2E7" fill-rule="evenodd" mask="url(#mask-7)" points="244 46 264 46 264 10 244 10"></polygon>
                            <polygon id="Fill-20" stroke="none" fill="#AEC2E7" fill-rule="evenodd" mask="url(#mask-7)" points="244 85 264 85 264 49 244 49"></polygon>
                            <path d="M196.633129,43.8281723 C195.80936,43.8281723 195.028724,43.5155523 194.288686,42.8894652 C193.547801,42.2633781 193.177359,41.4720853 193.177359,40.5155869 C193.177359,39.0660131 193.868344,37.4503864 195.250313,35.6704013 C196.633129,33.8904162 198.064152,33 199.545076,33 C200.532076,33 201.354154,33.3049951 202.013,33.9149852 C202.671,34.5258226 203,35.4069194 203,36.5599703 C203,37.9781973 202.325085,39.5438387 200.976945,41.2577416 C199.627114,42.9716444 198.179176,43.8281723 196.633129,43.8281723 M199.989099,65.9301485 L199.989099,69.5401041 C196.797206,73.6600792 193.81929,76.7667929 191.05535,78.8602452 C188.291411,80.9528503 185.937664,82 183.997494,82 C181.297832,82 179.290847,80.5826201 177.974847,77.7470132 C176.658846,74.9122534 176,71.8140118 176,68.4514411 C176,67.1662258 176.131938,65.9386206 176.394969,64.7686256 C176.658846,63.5986306 176.970931,62.6336601 177.333761,61.8754085 C177.6949,61.1171568 178.369816,59.9310649 179.356816,58.3162854 C184.029633,51.0311392 188.306635,47.3881425 192.190358,47.3881425 C194.197344,47.3881425 195.202105,48.1633383 195.202105,49.7120355 C195.202105,50.7676574 194.550871,52.415478 193.251785,54.6563446 C191.951854,56.8989055 190.791473,58.4967408 189.772334,59.4523921 C186.909441,62.2219168 185.04116,64.1501634 184.170029,65.2379791 C183.297206,66.3257949 182.86164,67.5618722 182.86164,68.9453637 C182.86164,70.1331501 183.305663,71.1218424 184.194556,71.912288 C185.082602,72.7035808 186.23368,73.0992271 187.64948,73.0992271 C189.195527,73.0992271 190.898885,72.5307502 192.757862,71.3937964 C194.61684,70.2559953 197.028098,68.4353442 199.989099,65.9301485" id="Fill-21" stroke="none" fill="#AEC2E7" fill-rule="evenodd" mask="url(#mask-7)"></path>
                        </g>
                    </g>
                </g>
            </g>
        </g>
    </g>
</svg>

<svg width="299" height="224" xmlns="http://www.w3.org/2000/svg" xmlns:xlink="http://www.w3.org/1999/xlink"><defs><path id="a" d="M0 0h299v224H0z"/><path id="d" d="M.154.431h49.608V211H.154z"/><path id="f" d="M0 397h336V0H0z"/><linearGradient x1="23.917%" y1="68.65%" x2="84%" y2="28.94%" id="b"><stop stop-color="#EEE" offset="0%"/><stop stop-color="#D8D8D8" offset="100%"/></linearGradient></defs><g fill="none" fill-rule="evenodd"><mask id="c" fill="#fff"><use xlink:href="#a"/></mask><use fill="url(#b)" xlink:href="#a"/><g mask="url(#c)"><g transform="translate(-50 6)"><path d="M220.151 395L218 389.466c54.999-12.517 76.91-70.081 86.183-113.367 10.573-49.347 8.014-96.373 7.985-96.843l7.534-.256c.03.475 2.625 48.019-8.058 97.947C301.79 323.008 278.573 381.704 220.15 395" fill="#2B374D"/><g transform="translate(253 186)"><mask id="e" fill="#fff"><use xlink:href="#d"/></mask><path d="M5.468 211l-5.314-4.083C29.977 183.987 40.69 32.739 42.255.43l7.507.215C48.088 35.279 37.643 186.26 5.468 211" fill="#2B374D" mask="url(#e)"/></g><mask id="g" fill="#fff"><use xlink:href="#f"/></mask><path fill="#2B374D" mask="url(#g)" d="M180 373h39V154h-39z"/><path fill="#8493AE" mask="url(#g)" d="M241.458 228H0l127.157-79H336z"/><path fill="#65789A" mask="url(#g)" d="M336 194.652V148l-94 79.402V249z"/><path d="M132.155 158L54 209l59.348-2.833s21.628-22.667 43.254-17.827c16.062 3.595 11.675 20.66 11.675 20.66h62.138L296 158H132.155z" fill="#4C5A73" mask="url(#g)"/><path fill="#20293A" mask="url(#g)" d="M224 106.325L211.642 182l-4.642-.502L211.739 105z"/><path d="M224 201h-28v-22.648c0-5.717 4.677-10.352 10.445-10.352h7.11c5.77 0 10.445 4.635 10.445 10.352V201z" fill="#2B374D" mask="url(#g)"/><path fill="#20293A" mask="url(#g)" d="M139 113h132V0H139z"/><path fill="#4C5A73" mask="url(#g)" d="M143 109h123V5H143z"/><path fill="#65789A" mask="url(#g)" d="M276 1.478L271 0v113l2.5-1.94z"/><path fill="#191E27" mask="url(#g)" d="M152 99h82V9h-82z"/><path fill="#AEC2E7" mask="url(#g)" d="M244 46h20V10h-20zM244 85h20V49h-20zM196.633 43.828c-.824 0-1.604-.312-2.344-.939-.741-.626-1.112-1.417-1.112-2.373 0-1.45.691-3.066 2.073-4.846 1.383-1.78 2.814-2.67 4.295-2.67.987 0 1.81.305 2.468.915.658.61.987 1.492.987 2.645 0 1.418-.675 2.984-2.023 4.698-1.35 1.714-2.798 2.57-4.344 2.57m3.356 22.102v3.61c-3.192 4.12-6.17 7.227-8.934 9.32-2.764 2.093-5.117 3.14-7.058 3.14-2.7 0-4.706-1.417-6.022-4.253-1.316-2.835-1.975-5.933-1.975-9.296 0-1.285.132-2.512.395-3.682.264-1.17.576-2.135.939-2.894.36-.758 1.036-1.944 2.023-3.559 4.673-7.285 8.95-10.928 12.833-10.928 2.007 0 3.012.775 3.012 2.324 0 1.056-.651 2.703-1.95 4.944-1.3 2.243-2.46 3.84-3.48 4.796-2.863 2.77-4.73 4.698-5.602 5.786a5.764 5.764 0 00-1.308 3.707c0 1.188.444 2.177 1.333 2.967.888.792 2.039 1.187 3.454 1.187 1.547 0 3.25-.568 5.109-1.705 1.859-1.138 4.27-2.959 7.231-5.464"/></g></g></g></svg>
